X: 14743
T: Gan Ainm
R: waltz
M: 3/4
K: Fmajor
|:c2 g2 z ^f/a/|g2 z2 z2|D2 C3 D|C2 z2 z2|c2 a2 z g/b/|g2 z2 z2:|
K:Gmin
|:D2 C3 D|C2 z2 z2|c2 b2 z a/b/|b2 ^fa g2|d=f e=B d2|c2 CD C z:|

